(Generated by PartKam Version 0.05)

G20 G90 G40

(follow path 1)
G0 Z0.5
T0 M6
G17
M3
G0 X0.7524 Y0.5018
G1 Z-0.75 F30
G3 X0.7315 Y0.5828 I-0.2587 J-0.0235 F60
G3 X0.6892 Y0.6454 I-0.1935 J-0.0851
G3 X0.6279 Y0.6874 I-0.1362 J-0.133
G3 X0.5569 Y0.702 I-0.0709 J-0.1659
G3 X0.5076 Y0.6954 I0 J-0.1896
G3 X0.4613 Y0.6762 I0.0501 J-0.1856
G3 X0.4217 Y0.6459 I0.098 J-0.1692
G3 X0.3905 Y0.6061 I0.1418 J-0.1431
G3 X0.3596 Y0.6465 I-0.1784 J-0.1042
G3 X0.3214 Y0.6765 I-0.1338 J-0.1312
G3 X0.2766 Y0.6955 I-0.0928 J-0.1564
G3 X0.228 Y0.702 I-0.0486 J-0.1777
G3 X0.1571 Y0.6875 I0 J-0.1804
G3 X0.0957 Y0.6454 I0.0749 J-0.175
G3 X0.0535 Y0.5828 I0.1513 J-0.1476
G3 X0.0326 Y0.5018 I0.2378 J-0.1045
G3 X0.0316 Y0.4924 I0.0823 J-0.0134
G3 X0.0315 Y0.4783 I0.1885 J-0.0091
G3 X0.0335 Y0.4539 I0.2202 J0.0058
G3 X0.0387 Y0.4257 I0.3013 J0.0417
G3 X0.0535 Y0.3796 I0.3044 J0.0718
G3 X0.0754 Y0.3356 I0.2974 J0.1212
G3 X0.1038 Y0.2955 I0.282 J0.169
G3 X0.1387 Y0.2589 I0.2693 J0.2221
G1 X0.3903 Y0.0305
G1 X0.6462 Y0.2588
G3 X0.6812 Y0.2955 I-0.2347 J0.2589
G3 X0.7095 Y0.3356 I-0.2537 J0.2092
G3 X0.7315 Y0.3795 I-0.2755 J0.1651
G3 X0.7462 Y0.4257 I-0.2896 J0.118
G3 X0.7515 Y0.4539 I-0.2959 J0.0699
G3 X0.7535 Y0.4783 I-0.2184 J0.0302
G3 X0.7534 Y0.4924 I-0.1885 J0.005
G3 X0.7524 Y0.5018 I-0.0856 J-0.0041
G0 Z0.5
M5
M30
