(Generated by PartKam Version 0.05)

G20 G90 G40

(follow path 1)
G0 Z0.5
T0 M6
G17
M3
G0 X5.0527 Y2.2926
G1 Z-0.75 F30
G2 X4.8215 Y2.0025 I-3.478 J2.5338 F60
G2 X4.5033 Y1.661 I-5.1417 J4.472
G2 X4.3698 Y1.53 I-6.2387 J6.2259
G2 X4.1991 Y1.3688 I-9.6298 J10.0266
G2 X4.0954 Y1.2734 I-11.3888 J12.2663
G2 X3.8866 Y1.0836 I-45.2508 J49.5676
G3 X3.6702 Y0.8867 I43.3014 J-47.8345
G3 X3.563 Y0.7879 I10.8025 J-11.8252
G3 X3.3866 Y0.6208 I9.0384 J-9.7149
G3 X3.2494 Y0.4853 I5.8099 J-6.02
G3 X3.0997 Y0.6042 I-5.3235 J-6.5466
G3 X2.9082 Y0.7502 I-8.2047 J-10.5703
G3 X2.792 Y0.8362 I-9.6716 J-12.9341
G3 X2.5578 Y1.0073 I-38.4911 J-52.4475
G2 X2.33 Y1.1737 I39.4503 J54.2602
G2 X2.2167 Y1.2575 I9.8955 J13.4906
G2 X2.0297 Y1.3995 I8.3128 J11.1351
G2 X1.883 Y1.5155 I5.3887 J6.9694
G2 X1.5302 Y1.821 I4.2796 J5.2987
G2 X1.2694 Y2.0848 I2.9251 J3.1528
G2 X0.921 Y2.5309 I2.8464 J2.5816
G2 X0.7023 Y2.9332 I2.0902 J1.3971
G2 X0.6115 Y3.189 I1.898 J0.8178
G2 X0.5639 Y3.423 I1.5401 J0.4352
G2 X0.5548 Y3.6851 I1.4251 J0.1806
G2 X0.5928 Y3.9306 I1.2867 J-0.0731
G2 X0.7241 Y4.2633 I1.3768 J-0.3512
G2 X0.9244 Y4.5345 I1.1064 J-0.6076
G2 X1.0592 Y4.6526 I0.7939 J-0.77
G2 X1.2001 Y4.7391 I0.5613 J-0.7563
G2 X1.3657 Y4.8019 I0.3937 J-0.7894
G2 X1.5378 Y4.8295 I0.221 J-0.8256
G2 X1.7614 Y4.8206 I0.066 J-1.1532
G2 X1.9739 Y4.7695 I-0.1504 J-1.0919
G2 X2.1573 Y4.6871 I-0.3812 J-1.0935
G2 X2.3418 Y4.5641 I-0.687 J-1.2302
G2 X2.6107 Y4.2991 I-1.0513 J-1.3357
G2 X2.889 Y3.8894 I-2.2727 J-1.8432
G3 X2.9305 Y3.8381 I0.171 J0.0961
G3 X2.9805 Y3.8089 I0.0995 J0.1132
G3 X3.0324 Y3.8002 I0.052 J0.1496
G3 X3.09 Y3.8088 I0.0002 J0.194
G3 X3.1391 Y3.8143 I0.0049 J0.1802
G3 X3.1813 Y3.832 I-0.0379 J0.1494
G3 X3.2195 Y3.8649 I-0.0795 J0.1308
G3 X3.2495 Y3.9139 I-0.1531 J0.1274
G2 X3.4824 Y4.351 I2.689 J-1.1524
G2 X3.7215 Y4.6432 I1.427 J-0.9235
G2 X3.8918 Y4.7852 I0.9847 J-1.0078
G2 X4.0653 Y4.8867 I0.6693 J-0.9449
G2 X4.2711 Y4.9603 I0.4719 J-0.996
G2 X4.4925 Y4.993 I0.2788 J-1.1208
G2 X4.7291 Y4.9715 I0.0423 J-0.847
G2 X4.9616 Y4.8826 I-0.2133 J-0.9059
G2 X5.1497 Y4.7515 I-0.5046 J-0.9247
G2 X5.3248 Y4.5655 I-0.8595 J-0.9847


G1 X5.5066 Y4.2532
G1 X5.5283 Y4.2002
G2 X5.5922 Y3.9601 I-1.2073 J-0.4502
G2 X5.6112 Y3.6986 I-1.417 J-0.2342
G2 X5.5888 Y3.4608 I-1.5998 J0.0305
G2 X5.5259 Y3.1968 I-2.0375 J0.3465
G2 X5.3514 Y2.7736 I-2.4024 J0.7428
G2 X5.0527 Y2.2926 I-3.4086 J1.7839
G0 Z0.5
M5
M30
